!!!!SEGMENT: pl-wn--mus-iii-86-058_zelenski-wladyslaw--piesn-zeglarzy-schifferlied-op-34-nr-1.krn
!!!cenid: 18xx:3716
!!!COM: Żeleński, Władysław
!!!COM-rismID: pe41024455
!!!CDT: 1837/07/06-1921/01/23
!!!CNT: Polish
!!!OTL: Pieśń żeglarzy/Schifferlied op. 34 nr 1
!!!PDT:
!!!AGN:
!!!YEC: Copyright 2022 Narodowy Instytut Fryderyka Chopina (https://polishscores.org)
!!!YEM: License CC-BY-4.0 (https://creativecommons.org/licenses/by/4.0)
!!!SMS-siglum: PL-Wn
!!!SMS-shelfmark: Mus.III.86.058
!!!SMS-shelfwork: W
!!!SMS-variant:
!!!SMS-altvar:
!!!NIFC-rismSourceID:
!!!NIFC-rismChildID:
!!!NIFC-islandoraID: none
!!!URL-pdf-islandora:
!!!URL-scan: https://polona2.pl/item/zwei-mannerchore-op-34-nr-1-schifferlied,NDU5Mzc0NjA/0/#item @EN{Scan on Polona} @PL{Skany w portalu Polona}
!!!IIIF: https://polona2.pl/iiif/item/NDU5Mzc0NjA/manifest.json
!!!ONB-nifc:
!!!OMD: Allegretto. [quarter-dot]=76.
!!!AIN: 2 bass 2 tenor
!!!key: A
**kern	**text	**text	**dynam	**kern	**text	**text	**dynam	**kern	**text	**text	**dynam	**kern	**text	**text	**dynam
*part4	*	*	*	*part3	*	*	*	*part2	*	*	*	*part1	*	*	*
*staff4	*	*	*	*staff3	*	*	*	*staff2	*	*	*	*staff1	*	*	*
*I"Bass II.	*	*	*	*I"Bass I.	*	*	*	*I"Tenor II.	*	*	*	*I"Tenor I.	*	*	*
*Ibass	*	*	*	*Ibass	*	*	*	*Itenor	*	*	*	*Itenor	*	*	*
*ICvox	*	*	*	*ICvox	*	*	*	*ICvox	*	*	*	*ICvox	*	*	*
*clefF4	*	*	*	*clefF4	*	*	*	*clefG2	*	*	*	*clefG2	*	*	*
*	*	*	*	*	*	*	*	*ITrd8c12	*	*	*	*ITrd8c12	*	*	*
*kcancel	*	*	*	*kcancel	*	*	*	*kcancel	*	*	*	*kcancel	*	*	*
*k[f#c#g#]	*	*	*	*k[f#c#g#]	*	*	*	*k[f#c#g#]	*	*	*	*k[f#c#g#]	*	*	*
*A:	*	*	*	*A:	*	*	*	*A:	*	*	*	*A:	*	*	*
*M6/8	*	*	*	*M6/8	*	*	*	*M6/8	*	*	*	*M6/8	*	*	*
*xywh-#3:142,1112,1501,222	*	*	*	*xywh-#3:144,944,1515,217	*	*	*	*xywh-#3:142,766,1502,226	*	*	*	*xywh-#3:134,322,1515,467	*	*	*
!	!	!	!LO:DY:a	!	!	!	!LO:DY:a	!	!	!	!	!	!	!	!
4.AA/	We-	Ge-	p	4.E\	We-	Ge-	p	4r	.	.	.	4r	.	.	.
.	.	.	.	.	.	.	.	8r	.	.	.	8r	.	.	.
=1	=1	=1	=1	=1	=1	=1	=1	=1	=1	=1	=1	=1	=1	=1	=1
4.AA/	-so-	-schwin-	.	4.E\	-so-	-schwin-	.	2.r	.	.	.	2.r	.	.	.
4AA/	-ło	-de	.	4E\	-ło	-de	.	.	.	.	.	.	.	.	.
8AA/	że-	zu	.	8F#^\	że-	zu	.	.	.	.	.	.	.	.	.
=2	=2	=2	=2	=2	=2	=2	=2	=2	=2	=2	=2	=2	=2	=2	=2
4.AA/	-gluj-	Schif-	.	4.E\	-gluj-	Schif-	.	4r	.	.	.	2.r	.	.	.
.	.	.	.	.	.	.	.	8r	.	.	.	.	.	.	.
!	!	!	!	!	!	!	!	!	!	!	!LO:DY:a	!	!	!	!
4AA/	-my!	-fe,	.	4E\	-my!	-fe,	.	4.A/	We-	Ge-	p	.	.	.	.
8AA/	we-	ge-	.	8F#^\	we-	ge-	.	.	.	.	.	.	.	.	.
=3	=3	=3	=3	=3	=3	=3	=3	=3	=3	=3	=3	=3	=3	=3	=3
4.AA/	-so-	-schwin-	.	4.E\	-so-	-schwin-	.	4.A/	-so-	-schwin-	.	2.r	.	.	.
4AA/	-ło	-de	.	4E\	-ło	-de	.	4A/	-ło	-de	.	.	.	.	.
8AA/	że-	zu	.	8F#^\	że-	zu	.	8A/	że-	zu	.	.	.	.	.
!!LO:LB:g=original
=4	=4	=4	=4	=4	=4	=4	=4	=4	=4	=4	=4	=4	=4	=4	=4
*xywh-#3:98,1865,1543,186	*	*	*	*xywh-#3:112,1668,1517,215	*	*	*	*xywh-#3:116,1482,1526,235	*	*	*	*xywh-#3:114,1304,1543,239	*	*	*
4.AA/	-gluj-	Schif-	.	4.E\	-gluj-	Schif-	.	4.A/	-gluj-	Schif-	.	4r	.	.	.
.	.	.	.	.	.	.	.	.	.	.	.	8r	.	.	.
4AA/	-my!	-fe,	.	4E\	-my!	-fe,	.	4A/	-my!	-fe,	.	4r	.	.	.
!	!	!	!	!	!	!	!	!	!	!	!	!LO:TX:a:i:t=semplice	!	!	!LO:DY:a:rj
8AA/	we-	ge-	.	8F#^\	we-	ge-	.	8A/	we-	ge-	.	8c#\	We-	Ge-	p
=5	=5	=5	=5	=5	=5	=5	=5	=5	=5	=5	=5	=5	=5	=5	=5
2.AA/	-so-	-schwin-	.	4.E\	-so-	-schwin-	.	4.A/	-so-	-schwin-	.	8c#\	-so-	-schwin-	.
.	.	.	.	.	.	.	.	.	.	.	.	8d\	-ło	-de	.
.	.	.	.	.	.	.	.	.	.	.	.	8c#\	że-	zu	.
.	.	.	.	4E\	-ło	-de	.	4A/	-ło	-de	.	8e\	-gluj-	Schif-	.
.	.	.	.	.	.	.	.	.	.	.	.	8A/	-my!	-fe,	.
.	.	.	.	8Fn^\	że-	zu	.	8A/	że-	zu	.	8B\	we-	ge-	.
=6	=6	=6	=6	=6	=6	=6	=6	=6	=6	=6	=6	=6	=6	=6	=6
4.AA/	-ło	-de	.	4.E\	-gluj-	Schif-	.	4.A/	-gluj-	Schif-	.	4.c#\	-so-	-schwin-	.
4.AA/	że-	zu	.	4E\	-my!	-fe,	.	4A/	-my!	-fe,	.	4c#\	-ło!	-de,	.
.	.	.	.	8F#X^\	we-	ge-	.	8A/	we-	ge-	.	8c#\	Po	auf	.
=7	=7	=7	=7	=7	=7	=7	=7	=7	=7	=7	=7	=7	=7	=7	=7
[2.AA/	-gluj-	Schif-	.	4.E\	-so-	-schwin-	.	4.A/	-so-	-schwin-	.	8c#\	ży-	stür-	.
.	.	.	.	.	.	.	.	.	.	.	.	8B\	-cia	-mi-	.
.	.	.	.	.	.	.	.	.	.	.	.	8c#\	burz-	-schen	.
.	.	.	.	4Fn\	-ło	-de	.	4G#/	-ło	-de	.	8d\	-li-	Flu-	.
.	.	.	.	.	.	.	.	.	.	.	.	8c#\	-wym	-ten	.
.	.	.	.	8D\	że-	zu	.	8G#/	że-	zu	.	8B\	po-	im	.
!!LO:LB:g=original
=8	=8	=8	=8	=8	=8	=8	=8	=8	=8	=8	=8	=8	=8	=8	=8
*xywh-#3:111,2580,1523,215	*	*	*	*xywh-#3:122,2392,1501,224	*	*	*	*xywh-#3:107,2215,1513,226	*	*	*	*xywh-#3:98,1996,1543,276	*	*	*
4.AA/]	.	.	.	4.C#/	-gluj-	Schif-	.	4.A/	-gluj-	Schif-	.	4.A/	-to-	Le-	.
8AA/	-my!	-fe,	.	8C#/	-my!	-fe,	.	8E/	-my!	-fe,	.	8E/	-ku,	-ben	.
8r	.	.	.	8r	.	.	.	8r	.	.	.	8r	.	.	.
8E\	Jak	gleich	.	8E\	Jak	gleich	.	8E/	Jak	gleich	.	8E/	Jak	gleich	.
=9	=9	=9	=9	=9	=9	=9	=9	=9	=9	=9	=9	=9	=9	=9	=9
8A\	or-	Ad-	.	8A\	or-	Ad-	.	8A/	or-	Ad-	.	8A/	or-	Ad-	.
!	!	!	!LO:HP:a	!	!	!	!LO:HP:a	!	!	!	!LO:HP:a	!	!	!	!LO:HP:a
8A\	-ły	-lern	<	8A\	-ły	-lern	<	8A/	-ły	-lern	<	8A/	-ły	-lern	<
8G#\	w_gra-	er-	.	8A\	w_gra-	er-	.	8A/	w_gra-	er-	.	8B\	w_gra-	er-	.
8Gn\	-do-	-ha-	.	8A\	-do-	-ha-	.	8A/	-do-	-ha-	.	8c#\	-do-	-ha-	.
8F#\	-wym	-ben	.	8A\	-wym	-ben	.	8B\	-wym	-ben	.	8d\	-wym	-ben	.
8E\	o-	zu	[	8A\	o-	zu	[	8c#\	o-	zu	[	8e\	o-	zu	[
=10	=10	=10	=10	=10	=10	=10	=10	=10	=10	=10	=10	=10	=10	=10	=10
!	!	!	!LO:DY:a	!	!	!	!LO:DY:a	!	!	!	!LO:DY:a	!	!	!	!LO:DY:a
4.D\	-bło-	schwe-	f	4.A\	-bło-	schwe-	f	4.d\	-bło-	schwe-	f	4.f#\	-bło-	schwe-	f
4F#\	-ku,	-ben	.	4A\	-ku,	-ben	.	4A/	-ku,	-ben	.	4d\	-ku,	-ben	.
8D\	Choć	bei	.	8A\	Choć	bei	.	8d\	Choć	bei	.	8f#\	Choć	bei	.
=11	=11	=11	=11	=11	=11	=11	=11	=11	=11	=11	=11	=11	=11	=11	=11
4.A\	wi-	dro-	.	4.A\	wi-	dro-	.	4.c#\	wi-	dro-	.	8e\	wi-	wi-	.
.	.	.	.	.	.	.	.	.	.	.	.	8d#X\	-chry	-drig	.
.	.	.	.	.	.	.	.	.	.	.	.	8e\	pio-	uns	.
4F#\	-chry	-hen-	.	4A\	-chry	-hen-	.	4c#\	-chry	-hen-	.	8f#\	-ru-	dro-	.
.	.	.	.	.	.	.	.	.	.	.	.	8c#\	-ny	-hen-	.
8F#\	wo-	-dem	.	8A\	wo-	-dem	.	8c#\	wo-	-dem	.	8d#\	wo-	-dem	.
!!LO:PB:g=original
=12	=12	=12	=12	=12	=12	=12	=12	=12	=12	=12	=12	=12	=12	=12	=12
*xywh-#4:392,1002,1497,189	*	*	*	*xywh-#4:392,803,1497,199	*	*	*	*xywh-#4:393,599,1495,204	*	*	*	*xywh-#4:365,358,1528,263	*	*	*
4C#/	-ko-	Win-	.	4G#\	-ko-	Win-	.	4c#\	-ko-	Win-	.	4e\	-ko-	Win-	.
8r	.	.	.	8r	.	.	.	8r	.	.	.	8r	.	.	.
!	!	!	!LO:DY:a	!	!	!	!LO:DY:a	!	!	!	!LO:DY:a	!	!	!	!LO:DY:a
[4.E\	-ło!	-de.	ff	[4.G#\	-ło!	-de.	ff	[4.B\	-ło!	-de.	ff	[4.e\	-ło!	-de.	ff
!	!	!	!LO:HP:a	!	!	!	!LO:HP:a	!	!	!	!LO:HP:a	!	!	!	!
.	.	.	>	.	.	.	>	.	.	.	>	.	.	.	.
=13	=13	=13	=13	=13	=13	=13	=13	=13	=13	=13	=13	=13	=13	=13	=13
!	!	!	!	!	!	!	!	!	!	!	!	!	!	!	!LO:HP:a
4.E\_	.	.	.	4.G#\_	.	.	.	4.B\_	.	.	.	4.e\_	.	.	>
4E\]	.	.	]	4G#\]	.	.	]	4B\]	.	.	]	4e\]	.	.	]
!	!	!	!LO:DY:a	!	!	!	!LO:DY:a	!	!	!	!LO:DY:a	!	!	!	!LO:DY:a
8E\	We-	Ge-	p	8E\	We-	Ge-	p	8G#/	We-	Ge-	p	8d\	We-	Ge-	p
=14	=14	=14	=14	=14	=14	=14	=14	=14	=14	=14	=14	=14	=14	=14	=14
!	!	!	!	!	!	!	!LO:HP:a	!	!	!	!	!	!	!	!
2.AA/	-so-	-schwin-	.	(4.E\	-so-	-schwin-	<	[2.A/	-so-	-schwin-	.	8c#\	-so-	-schwin-	.
.	.	.	.	.	.	.	.	.	.	.	.	8d\	-ło	-de	.
.	.	.	.	.	.	.	.	.	.	.	.	8c#\	że-	zu	.
.	.	.	.	4.Gn\)	.	.	[	.	.	.	.	8e\	-gluj-	Schif-	.
.	.	.	.	.	.	.	.	.	.	.	.	8A/	-my	-fe,	.
.	.	.	.	.	.	.	.	.	.	.	.	8B\	we-	ge-	.
=15	=15	=15	=15	=15	=15	=15	=15	=15	=15	=15	=15	=15	=15	=15	=15
4.AA/	-ło!	-de	.	4.F#\	-ło!	-de	.	4.A/]	.	.	.	4.c#\	-so-	-schwin-	.
4.AA/	we-	ge-	.	4.Fn\	Po	auf	.	4A/	-ło!	-de	.	4c#\	-ło!	-de,	.
.	.	.	.	.	.	.	.	8A/	Po	auf	.	8c#\	Po	auf	.
!!LO:LB:g=original
=16	=16	=16	=16	=16	=16	=16	=16	=16	=16	=16	=16	=16	=16	=16	=16
*xywh-#4:390,1796,1492,202	*	*	*	*xywh-#4:390,1605,1490,191	*	*	*	*xywh-#4:377,1414,1503,191	*	*	*	*xywh-#4:377,1192,1511,222	*	*	*
[2.AA/	-so-	-schwin-	.	4.E\	ży-	Flu-	.	4.A/	ży-	Flu-	.	8c#\	ży-	stür-	.
.	.	.	.	.	.	.	.	.	.	.	.	8B\	-cia	-mi-	.
.	.	.	.	.	.	.	.	.	.	.	.	8c#\	burz-	-schen	.
.	.	.	.	4Fn\	-cia	-ten	.	4G#X/	-cia	-ten	.	8d\	-li-	Flu-	.
.	.	.	.	.	.	.	.	.	.	.	.	8c#\	-wym	-ten	.
.	.	.	.	8D\	po-	im	.	8G#/	po-	im	.	8B\	po-	im	.
=17	=17	=17	=17	=17	=17	=17	=17	=17	=17	=17	=17	=17	=17	=17	=17
4.AA/]	.	.	.	4.C#/	-to-	Le-	.	4.A/	-to-	Le-	.	4.A/	-to-	Le-	.
4AA/	-ło!	-de	.	4C#/	-ku,	-ben	.	4E/	-ku,	-ben	.	4A/	-ku,	-ben	.
8C#/	Choć	gleich	.	8E\	Choć	gleich	.	8E/	Choć	gleich	.	8G#/	Choć	gleich	.
=18	=18	=18	=18	=18	=18	=18	=18	=18	=18	=18	=18	=18	=18	=18	=18
4.D\	wi-	Ad-	.	4.D\	wi-	Ad-	.	4.F#/	wi-	Ad-	.	(4.F#/	wi-	Ad-	.
!	!	!	!LO:HP:a:t=cresc. ed animando poco a poco	!	!	!	!LO:HP:a:t=cresc. ed animando poco a poco	!	!	!	!LO:HP:a:t=cresc. ed animando poco a poco	!	!	!	!LO:HP:a:t=cresc. ed animando poco a poco
4BB/	-chry	-lern	<	4F#\	-chry	-lern	<	4G#/	-chry	-lern	<	4d\)	-chry	-lern	<
8BB/	wo-	er-	.	8F#\	wo-	er-	.	8G#/	wo-	er-	.	8d\	wo-	er-	.
=19	=19	=19	=19	=19	=19	=19	=19	=19	=19	=19	=19	=19	=19	=19	=19
(4C#/	-ko-	-ha-	.	(4E#X\	-ko-	-ha-	.	(4G#/	-ko-	-ha-	.	(4c#\	-ko-	-ha-	.
8E#X\)	.	.	.	8G#\)	.	.	.	8B/)	.	.	.	8B\)	.	.	.
4F#\	-ło	-ben,	.	4F#\	-ło	-ben,	.	4A/	-ło	-ben,	.	4A/	-ło,	-ben,	.
8En\	pio-	er-	.	8G#\	pio-	er-	.	8B\	pio-	er-	.	8B\	pio-	er	.
!!LO:LB:g=original
=20	=20	=20	=20	=20	=20	=20	=20	=20	=20	=20	=20	=20	=20	=20	=20
*xywh-#4:385,2610,1488,187	*	*	*	*xywh-#4:385,2405,1503,204	*	*	*	*xywh-#4:375,2223,1513,182	*	*	*	*xywh-#4:375,1999,1507,223	*	*	*
4.A\	-ru-	-ha-	.	4.A\	-ru-	-ha-	.	4.c#\	-ru-	-ha-	.	4.c#\	-ru-	ha-	.
4D#X\	-ny	-ben	.	4A\	-ny	-ben	.	4B\	-ny	-ben	.	4f#\	-ny	-ben	.
8D#\	wo-	zu	.	8A\	wo-	zu	.	8B\	wo-	zu	.	8f#\	wo-	zu	.
=21	=21	=21	=21	=21	=21	=21	=21	=21	=21	=21	=21	=21	=21	=21	=21
(4E\	-ko-	schwe-	.	(4G#\	-ko-	schwe-	.	(4B\	-ko-	schwe-	.	(4e\	-ko-	schwe-	.
!	!	!	!LO:HP:a	!	!	!	!LO:HP:a	!	!	!	!LO:HP:a	!	!	!	!LO:HP:a
8G#\)	.	.	<	8B\)	.	.	<	8d\)	.	.	<	8d\)	.	.	<
4A\	-ło,	-ben,	.	4A\	-ło,	-ben,	.	4c#\	-ło,	-ben,	.	4c#\	-ło,	-ben,	.
8A\	we-	er-	[	8c#\	we-	er-	[	8e\	we-	er-	[	8e\	we-	er-	[
=22	=22	=22	=22	=22	=22	=22	=22	=22	=22	=22	=22	=22	=22	=22	=22
!	!	!	!LO:DY:a	!	!	!	!LO:DY:a	!	!	!	!LO:DY:a	!	!	!	!LO:DY:a
4.A\	-so-	-ha-	ff	4.d\	-so-	-ha-	ff	4.f#\	-so-	-ha-	ff	4.a\	-so-	-ha-	ff
4A\	-ło!	-ben,	.	4c#\	-ło!	-ben,	.	4e\	-ło!	-ben,	.	4e\	-ło!	-ben,	.
8A\	we-	er-	.	8c#\	we-	er-	.	8e\	we-	er-	.	8e\	we-	er	.
=23	=23	=23	=23	=23	=23	=23	=23	=23	=23	=23	=23	=23	=23	=23	=23
4.A\	-so-	-ha-	.	4.d\	-so-	-ha-	.	4.f#\	-so-	-ha-	.	4.a\	-so-	ha-	.
4A\	-ło!	-ben,	.	4c#\	-ło!	-ben,	.	4e\	-ło!	-ben,	.	4e\	-ło!	-ben,	.
8A\	we-	er-	.	8c#\	we-	er-	.	8e\	we-	er-	.	8e\	we-	er-	.
!!LO:PB:g=original
=24	=24	=24	=24	=24	=24	=24	=24	=24	=24	=24	=24	=24	=24	=24	=24
*xywh-#5:147,927,1558,203	*	*	*	*xywh-#5:169,717,1542,225	*	*	*	*xywh-#5:169,533,1507,184	*	*	*	*xywh-#5:134,304,1542,229	*	*	*
!	!	!	!	!	!	!	!	!	!	!	!	!LO:TX:a:i:t=poco rit.	!	!	!
2.A\	-so-	-ha-	.	2.d\	-so-	-ha-	.	2.fn\	-so-	-ha-	.	2.a\	-so-	-ha-	.
=25	=25	=25	=25	=25	=25	=25	=25	=25	=25	=25	=25	=25	=25	=25	=25
[4.A\	-ło!	-ben!	.	[4.c#\	-ło!	-ben!	.	[4.e\	-ło!	-ben!	.	[4.e\	-ło!	-ben!	.
4A;\]	.	.	.	4c#;\]	.	.	.	4e;\]	.	.	.	4e;\]	.	.	.
!	!	!	!	!	!	!	!	!	!	!	!LO:DY:a	!LO:TX:a:i:t=a tempo	!	!	!LO:DY:a
8r	.	.	.	8r	.	.	.	8A/	We-	Ge-	p	8c#'\	We-	Ge-	p
=26	=26	=26	=26	=26	=26	=26	=26	=26	=26	=26	=26	=26	=26	=26	=26
4r	.	.	.	4r	.	.	.	8A'>/	-so-	-schwin-	.	8c#'\	-so-	-schwin-	.
.	.	.	.	.	.	.	.	8G#'>/	-ło	-de	.	8B'\	-ło	-de	.
8r	.	.	.	8r	.	.	.	8A'>/	że-	zu	.	8c#'\	że-	zu	.
4r	.	.	.	4r	.	.	.	8B'>/	-gluj-	Schif-	.	8d'\	-gluj-	Schif-	.
.	.	.	.	.	.	.	.	8A'>/	-my	-fe,	.	8c#'\	-my	-fe,	.
!	!	!	!LO:DY:a	!	!	!	!LO:DY:a	!	!	!	!	!	!	!	!
8E'\	We-	Ge-	p	8E\	We-	Ge-	p	8G#'>/	we-	ge-	.	8B'\	we-	ge-	.
=27	=27	=27	=27	=27	=27	=27	=27	=27	=27	=27	=27	=27	=27	=27	=27
!LO:TX:a:i:t=marcato	!	!	!	!	!	!	!	!	!	!	!	!	!	!	!
8AA'/	-so-	-schwin-	.	[2.E\	-so-	-schwin-	.	4.c#\	-so-	-schwin-	.	(4.e^\	-so-	-schwin-	.
8BB'>/	-ło	-de	.	.	.	.	.	.	.	.	.	.	.	.	.
8C#'>/	że-	zu	.	.	.	.	.	.	.	.	.	.	.	.	.
8D'>/	-gluj-	Schif-	.	.	.	.	.	4B\	-ło!	-de,	.	4E/)	-ło!	-de,	.
8C#'>/	-my	-fe,	.	.	.	.	.	.	.	.	.	.	.	.	.
8BB'>/	we-	ge-	.	.	.	.	.	8d'\	we-	ge-	.	8r	.	.	.
!!LO:LB:g=original
=28	=28	=28	=28	=28	=28	=28	=28	=28	=28	=28	=28	=28	=28	=28	=28
*xywh-#5:177,1722,1497,198	*	*	*	*xywh-#5:177,1541,1524,180	*	*	*	*xywh-#5:167,1323,1534,217	*	*	*	*xywh-#5:147,1131,1540,229	*	*	*
!	!	!	!LO:HP:a	!	!	!	!	!	!	!	!LO:HP:a:t=marcato e cresc.	!	!	!	!
4.AA/	-so-	-schwin-	<	4.E\]	.	.	.	8c#'\	-so-	-schwin-	<	4r	.	.	.
.	.	.	.	.	.	.	.	8B'\	-ło	-de	.	.	.	.	.
.	.	.	.	.	.	.	.	8c#'\	że-	zu	.	8r	.	.	.
4AA/	-ło	-de	.	4F#\	-ło	-de	.	8d'\	-gluj-	Schif-	.	4r	.	.	.
!	!	!	!	!	!	!	!LO:HP:a	!	!	!	!	!	!	!	!
.	.	.	.	.	.	.	<	8c#'\	-my	-fe	.	.	.	.	.
!	!	!	!	!	!	!	!	!LO:TX:a:i:t=sempre	!	!	!	!	!	!	!LO:HP:a
8AA/	we-	ge-	.	8G#\	że-	zu	.	8B'\	we-	ge-	.	8e^\	we-	ge-	<
=29	=29	=29	=29	=29	=29	=29	=29	=29	=29	=29	=29	=29	=29	=29	=29
8AA'>/	-so-	-schwin-	.	4.A\	-gluj-	Schif-	[	4.c#\	-so-	-schwin-	.	4.e\	-so-	-schwin-	.
8BB'>/	-ło	-de	.	.	.	.	.	.	.	.	.	.	.	.	.
8C#'>/	ze-	zu	.	.	.	.	.	.	.	.	.	.	.	.	.
8D'>/	-gluj-	Schif-	.	4E\	-my	-fe,	.	4B\	-ło!	-de,	.	4E/	-ło	-de,	.
8C#'>/	-my	-fe,	.	.	.	.	.	.	.	.	.	.	.	.	.
8BB'>/	we-	ge-	.	8E\	we-	ge-	.	8d'\	we-	ge-	.	8r	.	.	.
=30	=30	=30	=30	=30	=30	=30	=30	=30	=30	=30	=30	=30	=30	=30	=30
4.AA/	-so-	-schwin-	.	4.E\	-so-	-schwin-	.	8c#'\	-so-	-schwin-	.	4r	.	.	.
.	.	.	.	.	.	.	.	8B'\	-ło	-de	.	.	.	.	.
.	.	.	.	.	.	.	.	8c#'\	że-	zu	.	8r	.	.	.
!	!	!	!	!	!	!	!LO:HP:a	!	!	!	!	!	!	!	!
4AA/	-ło!	-de,	.	4F#\	-ło!	-de,	<	8d'\	-gluj-	Schif-	.	4r	.	.	.
.	.	.	.	.	.	.	.	8c#'\	-my,	-fe	.	.	.	.	.
!	!	!	!	!	!	!	!	!	!	!	!	!	!	!	!LO:DY:a
8E\	we-	ge-	.	8G#\	we-	ge-	[[	8B'\	we-	ge-	.	8e\	we-	ge-	f
!!LO:LB:g=original
=31	=31	=31	=31	=31	=31	=31	=31	=31	=31	=31	=31	=31	=31	=31	=31
*xywh-#5:144,2541,1532,184	*	*	*	*xywh-#5:144,2322,1542,219	*	*	*	*xywh-#5:120,2145,1566,198	*	*	*	*xywh-#5:120,1920,1554,225	*	*	*
!	!	!	!	!LO:TX:a:i:t=marcato	!	!	!	!	!	!	!	!	!	!	!
[2.E\	-so-	-schwin-	.	8A'\	-so-	-schwin-	.	8c#'\	-so-	-schwin-	.	[2.e\	-so-	-schwin-	.
.	.	.	.	8G#'\	-ło	-de	.	8B'\	-ło	-de	.	.	.	.	.
.	.	.	.	8A'\	że-	zu	.	8c#'\	że-	zu	.	.	.	.	.
.	.	.	.	8B'\	-gluj-	Schif-	.	8d'\	-gluj-	Schif-	.	.	.	.	.
.	.	.	.	8A'\	-my,	-fe,	.	8c#'\	-my,	-fe,	.	.	.	.	.
.	.	.	.	8G#'\	we-	ge-	.	8B'\	we-	ge-	.	.	.	.	.
=32	=32	=32	=32	=32	=32	=32	=32	=32	=32	=32	=32	=32	=32	=32	=32
2.E\_	.	.	.	8A\	-so-	-schwin-	.	8c#'\	-so-	-schwin-	.	2.e\]	.	.	.
.	.	.	.	8G#\	-ło	-de	.	8B'\	-ło	-de	.	.	.	.	.
.	.	.	.	8A\	że-	zu	.	8c#'\	że-	zu	.	.	.	.	.
.	.	.	.	8B\	-gluj-	Schif-	.	8d'\	-gluj-	Schif-	.	.	.	.	.
.	.	.	.	8A\	-my	-fe,	.	8c#'\	-my	-fe,	.	.	.	.	.
.	.	.	.	8G#\	we-	ge-	.	8B'\	we-	ge-	.	.	.	.	.
=33	=33	=33	=33	=33	=33	=33	=33	=33	=33	=33	=33	=33	=33	=33	=33
4.E\]	.	.	.	4.A\	-so-	-schwin-	.	4.c#\	-so-	-schwin-	.	4E/	-ło!	-de!	.
.	.	.	.	.	.	.	.	.	.	.	.	8r	.	.	.
4E\	-ło!	-de!	.	4G#\	-ło!	-de!	.	4B\	-ło!	-de!	.	4r	.	.	.
!	!	!	!LO:DY:a	!	!	!	!LO:DY:a	!	!	!	!LO:DY:a	!	!	!	!LO:DY:a
8E\	Hej!	Hoi	ff	8B\	Hej!	Hoi	ff	8d\	Hej!	Hoi	ff	8e\	Hej!	Hoi	ff
=34	=34	=34	=34	=34	=34	=34	=34	=34	=34	=34	=34	=34	=34	=34	=34
*	*	*	*	*	*	*	*	*	*	*	*	*^	*	*	*
*	*	*	*	*	*	*	*	*	*	*	*	*	*xywh-#5:120,1920,1554,225	*	*	*
2.AA;/	hej!	ho!	.	2.A;\	hej!	ho!	.	2.c#;\	hej!	ho!	.	2.a;/	2.e\	hej!	ho!	.
*	*	*	*	*	*	*	*	*	*	*	*	*v	*v	*	*	*
!!LO:PB:g=original
=35||	=35||	=35||	=35||	=35||	=35||	=35||	=35||	=35||	=35||	=35||	=35||	=35||	=35||	=35||	=35||
!!!OMD: Allegro con brio. [half]=88.
!!!key: E
*k[f#c#g#d#]	*	*	*	*k[f#c#g#d#]	*	*	*	*k[f#c#g#d#]	*	*	*	*k[f#c#g#d#]	*	*	*
*M2/2	*	*	*	*M2/2	*	*	*	*M2/2	*	*	*	*M2/2	*	*	*
*met(c|)	*	*	*	*met(c|)	*	*	*	*met(c|)	*	*	*	*met(c|)	*	*	*
*xywh-#6:412,915,1525,198	*	*	*	*xywh-#6:434,725,1503,189	*	*	*	*xywh-#6:434,543,1503,181	*	*	*	*xywh-#6:384,230,1553,313	*	*	*
!LO:TX:a:i:t=ben marcato	!	!	!LO:DY:a	!LO:TX:a:i:t=ben marcato	!	!	!LO:DY:a	!	!	!	!	!	!	!	!
(4E\	Da-	Wei-	f	(4E\	Da-	Wei-	f	2r	.	.	.	2r	.	.	.
4D#\)	.	.	.	4D#\)	.	.	.	.	.	.	.	.	.	.	.
!	!	!	!	!	!	!	!	!	!	!	!LO:DY:a	!	!	!	!LO:DY:a
4C#/	-lej,	-ter	.	4C#/	-lej,	-ter	.	[2A/	Da-	Wei-	f	[2A/	Da-	Wei-	f
!	!	!	!	!	!	!	!	!	!	!	!LO:HP:a	!	!	!	!LO:HP:a
4BB/	i	und	.	4BB/	i	und	.	.	.	.	>	.	.	.	>
=36	=36	=36	=36	=36	=36	=36	=36	=36	=36	=36	=36	=36	=36	=36	=36
(4C#/	prę-	ra-	.	(4C#/	prę-	ra-	.	2A/]	.	.	.	2A/]	.	.	.
4D#\)	.	.	.	4D#\)	.	.	.	.	.	.	.	.	.	.	.
4E\	-dzej,	-scher	.	4E\	-dzej,	-scher	.	4G#/	-lej!	-ter,	]	4G#/	-lej!	-ter,	]
4F#\	i	und	.	4F#\	i	und	.	4r	.	.	.	4r	.	.	.
=37	=37	=37	=37	=37	=37	=37	=37	=37	=37	=37	=37	=37	=37	=37	=37
4G#\	da-	wei-	.	4G#\	da-	wei-	.	2r	.	.	.	2r	.	.	.
4F#\	-lej,	-ter,	.	4F#\	-lej,	-ter,	.	.	.	.	.	.	.	.	.
!	!	!	!	!	!	!	!	!	!	!	!LO:DY:a	!	!	!	!LO:DY:a
(4E\	prę-	wei-	.	(4E\	prę-	wei-	.	([2c#\	Da-	wei-	f	([2c#\	Da-	wei-	f
4D#\)	.	-ter	.	4D#\)	.	-ter	.	.	.	.	.	.	.	.	.
=38	=38	=38	=38	=38	=38	=38	=38	=38	=38	=38	=38	=38	=38	=38	=38
!	!	!	!	!	!	!	!	!	!	!	!LO:DY:a	!	!	!	!LO:HP:a
4E\	-dzej	im-	.	4E\	-dzej	im-	.	4c#\]	.	.	>	4c#\]	.	.	>
4F#\	i	-mer	.	4F#\	i	-mer	.	4A#X/)	.	.	.	4A#X/)	.	.	.
(4G#\	da-	wei-	.	(4G#\	da-	wei-	.	4B\	-lej!	-ter!	.	4B\	-lej!	-ter!	]
4A#X\)	.	.	.	4A#X\)	.	.	.	4r	.	.	]	4r	.	.	.
!!LO:LB:g=original
=39	=39	=39	=39	=39	=39	=39	=39	=39	=39	=39	=39	=39	=39	=39	=39
*xywh-#6:410,1705,1527,200	*	*	*	*xywh-#6:434,1528,1503,177	*	*	*	*xywh-#6:434,1340,1519,187	*	*	*	*xywh-#6:412,1113,1541,226	*	*	*
!	!	!	!	!	!	!	!	!LO:TX:a:i:t=ben marcato	!	!	!	!LO:TX:a:i:t=ben marcato	!	!	!
4B\	-lej!	-ter!	.	4B\	-lej!	-ter!	.	(4B\	Bu-	Sturm	.	(4B\	Bu-	Sturm	.
4r	.	.	.	4r	.	.	.	4A#X/)	.	.	.	4A#X/)	.	.	.
!	!	!	!LO:HP:a	!	!	!	!LO:HP:a	!	!	!	!	!	!	!	!
!	!	!	!LO:DY:a	!	!	!	!LO:DY:a	!	!	!	!	!	!	!	!
[2E\	Bu-	.	f > ]]	[2E\	Bu-	.	f > ]]	4G#/	-rza	und	.	4G#/	-rza	und	.
.	.	.	.	.	.	.	.	4F#/	się	Ge-	.	4F#/	się	Ge-	.
=40	=40	=40	=40	=40	=40	=40	=40	=40	=40	=40	=40	=40	=40	=40	=40
2E\]	.	.	.	2E\]	.	.	.	(4G#/	dą-	-wit-	.	(4G#/	dą-	-wit-	.
.	.	.	.	.	.	.	.	4A#X/)	.	.	.	4A#X/)	.	.	.
4D#\	-rza,	.	.	4D#\	-rza,	.	.	4B\	-sa,	-ter	.	4B\	-sa,	-ter	.
4r	.	.	.	4r	.	.	.	4c#\	da-	mag	.	4c#\	da-	mag	.
=41	=41	=41	=41	=41	=41	=41	=41	=41	=41	=41	=41	=41	=41	=41	=41
2r	.	.	.	2r	.	.	.	(4d#\	-rem-	to-	.	(4d#\	-rem-	to-	.
.	.	.	.	.	.	.	.	4c#\)	.	.	.	4c#\)	.	.	.
!	!	!	!LO:HP:a	!	!	!	!LO:HP:a	!	!	!	!	!	!	!	!
!	!	!	!LO:DY:a	!	!	!	!LO:DY:a	!	!	!	!	!	!	!	!
([2G#\	Bu-	.	f >	([2G#\	Bu-	.	f >	4B\	-nie	-ben,	.	4B\	-nie	-ben,	.
.	.	.	]	.	.	.	]	4A#X/	się	mag	.	4A#X/	się	mag	.
=42	=42	=42	=42	=42	=42	=42	=42	=42	=42	=42	=42	=42	=42	=42	=42
!	!	!	!LO:HP:a	!	!	!	!LO:HP:a	!	!	!	!LO:HP:a	!	!	!	!LO:HP:a
4G#\]	.	.	<	4G#\]	.	.	<	(4B\	dą-	to-	<	(4B\	dą-	to-	<
4E\)	.	.	.	4E\)	.	.	.	4c#\)	.	.	.	4c#\)	.	.	.
4F#\	-rza	.	.	4F#\	-rza	.	.	4d#\	-sa,	-ben,	.	4d#\	-sa,	-ben,	.
4G#\	ko-	den	[	4G#\	ko-	den	[	4e\	Ko-	den	[	4e\	Ko-	den	[
!!LO:LB:g=original
=43	=43	=43	=43	=43	=43	=43	=43	=43	=43	=43	=43	=43	=43	=43	=43
*xywh-#6:438,2516,1487,200	*	*	*	*xywh-#6:418,2324,1507,191	*	*	*	*xywh-#6:418,2142,1507,181	*	*	*	*xywh-#6:410,1905,1515,236	*	*	*
!	!	!	!LO:DY:a	!	!	!	!LO:DY:a	!	!	!	!LO:DY:a	!	!	!	!LO:DY:a
2D#\	-chan-	Sturm	ff	2A\	-chan-	Sturm	ff	2B#X\	-chan-	Sturm	ff	(4g#^\	-chan-	Sturm	ff
.	.	.	.	.	.	.	.	.	.	.	.	4f#\)	.	.	.
4G#\	-ka	will	.	4G#\	-ka	will	.	4B#\	-ka	will	.	4e\	-ka	will	.
4F#\	zna-	ich	.	4G#\	zna-	ich	.	4B#\	zna-	ich	.	4d#\	zna-	ich	.
=44	=44	=44	=44	=44	=44	=44	=44	=44	=44	=44	=44	=44	=44	=44	=44
(4E\	-la-	lie-	.	2G#\	-la-	lie-	.	(4c#\	-la-	lie-	.	(4c#\	-la-	lie-	.
4D#\)	.	.	.	.	.	.	.	4B#X\)	.	.	.	4d#\)	.	.	.
4C#/	-zła,	-ben,	.	4G#\	-zła,	-ben,	.	4c#\	-zła,	-ben,	.	4e\	-zła,	-ben,	.
4E\	zna-	ja	.	4G#\	zna-	ja	.	4G#/	zna-	ja	.	4c#\	zna-	ja	.
=45	=45	=45	=45	=45	=45	=45	=45	=45	=45	=45	=45	=45	=45	=45	=45
2C#/	-la-	lie-	.	2Gn\	-la-	lie-	.	2A#X/	-la-	lie-	.	(4f#^\	-la-	lie-	.
.	.	.	.	.	.	.	.	.	.	.	.	4e\)	.	.	.
4F#\	-zła	-ben	.	4F#\	-zła	-ben	.	4A#/	-zła	-ben	.	4d#\	-zła	-ben	.
4E\	go	und	.	4F#\	go	und	.	4A#/	go	und	.	4c#\	go	und	.
=46	=46	=46	=46	=46	=46	=46	=46	=46	=46	=46	=46	=46	=46	=46	=46
(4D#\	we	lo-	.	2F#\	we	lo-	.	(4B\	we	lo-	.	(4B\	we	lo-	.
4C#/)	.	.	.	.	.	.	.	4A#X/)	.	.	.	4c#\)	.	.	.
4BB/	mnie,	-ben,	.	4F#\	mnie,	-ben,	.	4B\	mnie,	-ben,	.	4d#\	mnie,	-ben,	.
4BB/	Z_ko-	mit-	.	4BB/	Z_ko-	mit-	.	4r	.	.	.	4r	.	.	.
!!LO:PB:g=original
=47	=47	=47	=47	=47	=47	=47	=47	=47	=47	=47	=47	=47	=47	=47	=47
*xywh-#7:149,888,1500,187	*	*	*	*xywh-#7:107,705,1541,183	*	*	*	*xywh-#7:107,492,1550,212	*	*	*	*xywh-#7:109,257,1552,276	*	*	*
4E\	-chan-	-stür-	.	2.E\	-chan-	-stür-	.	4r	.	.	.	4r	.	.	.
!	!	!	!LO:HP:a	!	!	!	!LO:HP:a	!	!	!	!LO:HP:a	!	!	!	!LO:HP:a
4D#\	-kiem	-men	<	.	.	.	<	4B\	Z_ko-	mit-	<	4B\	Z_ko-	mit-	<
4C#/	twym	mu-	.	.	.	.	.	4A#X/	-chan-	-stür-	.	4A#X/	-chan-	-stür-	.
4BB/	po-	-tig	[	4E\	-kiem	-men	[	4G#/	-kiem	-men	[	4B\	-kiem	-men	[
=48	=48	=48	=48	=48	=48	=48	=48	=48	=48	=48	=48	=48	=48	=48	=48
!	!	!	!LO:HP:a	!	!	!	!LO:HP:a	!	!	!	!LO:HP:a	!	!	!	!LO:HP:a
(4AA#X/	-sza-	hei-	>	2E\	sza-	mu-	>	2G#/	two-	mu-	>	2c#\	two-	mu-	>
4BB/)	.	.	.	.	.	.	.	.	.	.	.	.	.	.	.
4C#/	-lej!	-ter,	]	4E\	-lej!	-tig	]	4A#X/	-im,	-tig	]	4A#X/	-im,	-tig	]
4E\	z_ko-	ja	.	4E\	z_ko-	im	.	4G#/	z_ko-	im	.	4G#/	z_ko-	im	.
=49	=49	=49	=49	=49	=49	=49	=49	=49	=49	=49	=49	=49	=49	=49	=49
!	!	!	!LO:HP:a	!	!	!	!LO:HP:a	!	!	!	!LO:HP:a	!	!	!	!LO:HP:a
(<4D#\	-chan-	mu-	<	2D#\	-chan-	Le-	<	2F##X/	-chan-	Le-	<	(4F##X/	-chan-	Le-	<
4C#/)	-kiem	.	.	.	.	.	.	.	.	.	.	4A#X/)	.	.	.
4BB/	twym	-tig	.	4D#\	-kiem	-ben	.	4F##/	-kiem	-ben	.	4d#\	-kiem	-ben	.
4AA#X/	po-	und	.	4D#\	po-	und	.	4F##/	po-	und	.	4c#\	po-	und	.
=50	=50	=50	=50	=50	=50	=50	=50	=50	=50	=50	=50	=50	=50	=50	=50
(4GG#/	-sza-	hei-	.	2D#\	-sza-	hei-	.	(4G#/	-sza-	hei-	.	(4B\	-sza-	hei-	.
4AA#X/)	.	.	.	.	.	.	.	4F##X/)	.	.	.	4A#X/)	.	.	.
4BB/	-lej!	-ter!	.	4D#\	-lej!	-ter!	.	4G#/	-lej!	-ter!	[	4G#/	-lej!	-ter!	[
!	!	!	!LO:DY:a	!	!	!	!LO:DY:a	!	!	!	!LO:DY:a	!	!	!	!LO:DY:a
4C#/	I	Nur	[ ff	4G#\	I	Nur	[ ff	4A#X/	I	Nur	ff	4e\	I	Nur	ff
!!LO:LB:g=original
=51	=51	=51	=51	=51	=51	=51	=51	=51	=51	=51	=51	=51	=51	=51	=51
*xywh-#7:138,1675,1502,194	*	*	*	*xywh-#7:138,1493,1502,181	*	*	*	*xywh-#7:138,1291,1496,202	*	*	*	*xywh-#7:149,1076,1490,233	*	*	*
2GG#/	da-	wei-	.	2G#\	da-	wei-	.	2B\	da-	wei-	.	2d#\	da-	wei-	.
4E\	-lej,	-ter	.	4G#\	-lej,	-ter	.	4B\	-lej,	-ter	.	4B\	-lej,	-ter	.
4C#/	i	und	.	4G#\	i	und	.	4A#X/	i	und	.	4e\	i	und	.
=52	=52	=52	=52	=52	=52	=52	=52	=52	=52	=52	=52	=52	=52	=52	=52
2GG#/	prę-	ra-	.	2G#\	prę-	ra-	.	2B\	prę-	ra-	.	2d#\	prę-	ra-	.
4E\	-dzej,	-scher	.	4G#\	-dzej,	-scher	.	4B\	-dzej,	-scher	.	4B\	-dzej,	-scher	.
4C#/	i	und	.	4G#\	i	und	.	4A#X/	i	und	.	4e\	i	und	.
=53	=53	=53	=53	=53	=53	=53	=53	=53	=53	=53	=53	=53	=53	=53	=53
!	!	!	!	!	!	!	!	!	!	!	!	!LO:TX:a:i:t=poco ritard.	!	!	!
1GG#	da-	wei-	.	1G#	da-	wei-	.	1B	da-	wei-	.	1d#	da-	wei-	.
=54	=54	=54	=54	=54	=54	=54	=54	=54	=54	=54	=54	=54	=54	=54	=54
2GG#;/	-lej!	-ter!	.	2D#;\	-lej!	-ter!	.	2G#;/	-lej!	-ter!	.	2B;\	-lej!	-ter!	.
!	!	!	!	!	!	!	!	!	!	!	!LO:DY:a:rj	!LO:TX:a:B:t=Meno mosso. [half]=76.	!	!	!LO:DY:a:rj
2r	.	.	.	2r	.	.	.	2A^>/	Mu-	Mu-	f	2A^>/	Mu-	Mu-	f
=55	=55	=55	=55	=55	=55	=55	=55	=55	=55	=55	=55	=55	=55	=55	=55
*	*	*	*	*	*	*	*	*^	*	*	*	*^	*	*	*
*	*	*	*	*	*	*	*	*	*xywh-#7:138,1291,1496,202	*	*	*	*	*xywh-#7:149,1076,1490,233	*	*	*
4r	.	.	.	4r	.	.	.	2G#^>/	2ryy	-zy-	-sik	.	2G#^>/	2ryy	-zy-	-sik	.
4F#^\	Mu-	Mu-	.	4F#^\	Mu-	Mu-	.	.	.	.	.	.	.	.	.	.	.
4E^\	-zy-	-sik,	.	4E^\	-zy-	-sik,	.	2c#^>/	4c#\	-ka,	und	.	2c#^>/	4c#\	-ka,	und	.
4A^\	-ka,	Ge-	.	4A^\	-ka,	Ge-	.	.	4c#\	.	Ge-	.	.	4c#\	.	Ge	.
*	*	*	*	*	*	*	*	*v	*v	*	*	*	*	*	*	*	*
*	*	*	*	*	*	*	*	*	*	*	*	*v	*v	*	*	*
!!LO:LB:g=original
=56	=56	=56	=56	=56	=56	=56	=56	=56	=56	=56	=56	=56	=56	=56	=56
*xywh-#7:130,2504,1517,227	*	*	*	*xywh-#7:142,2261,1504,243	*	*	*	*xywh-#7:149,2094,1490,194	*	*	*	*xywh-#7:138,1869,1500,224	*	*	*
2BB#X/	tań-	-sän-	.	2F#\	tań-	-sän-	.	2A/	tań-	sän-	.	4d#\	śpie-	sän-	.
.	.	.	.	.	.	.	.	.	.	.	.	8d#\	-wy	-ge	.
.	.	.	.	.	.	.	.	.	.	.	.	8d#\	i	und	.
4C#/	-ce,	-ge	.	4E\	-ce,	-ge	.	4G#/	-ce	-ge	.	4G#/	tań-	Tän-	.
4c#^\	Po-	er-	.	4c#^\	Po-	er-	.	4r	.	.	.	8c#\	-ce,	-ze	.
.	.	.	.	.	.	.	.	.	.	.	.	8r	.	.	.
=57	=57	=57	=57	=57	=57	=57	=57	=57	=57	=57	=57	=57	=57	=57	=57
2B^\	-cho-	-schal-	.	2B^\	-cho-	-schal-	.	4r	.	.	.	4r	.	.	.
.	.	.	.	.	.	.	.	4A^>/	Po-	er-	.	4A^>/	Po-	er-	.
2e^\	-dnią	-len	.	2e^\	-dnią	-len	.	4G#^>/	-cho-	-schal-	.	4G#^>/	-cho-	-schal-	.
.	.	.	.	.	.	.	.	4c#^\	-dnią	-len	.	4c#^\	-dnią	-len	.
=58	=58	=58	=58	=58	=58	=58	=58	=58	=58	=58	=58	=58	=58	=58	=58
!	!	!	!LO:HP:a	!	!	!	!LO:HP:a	!	!	!	!LO:HP:a	!	!	!	!LO:HP:a
2A\	tlij-	fröh-	<	2A\	tlij-	fröh-	<	4B\	go-	fröh-	<	4B\	go-	fröh-	<
.	.	.	.	.	.	.	.	8B\	-dów	-lich	.	8c#\	-dów	-lich	.
.	.	.	.	.	.	.	.	8B\	za-	im	.	8d#X\	za-	im	.
4G#\	-cie	-lich,	.	4G#\	-cie	-lich,	.	4B\	-tlij-	Saa-	.	4e\	-tlij-	Saa-	.
4G#\	Spie-	singt,	[	4B\	Śpie-	singt,	[	8d#\	-cie	-le,	[	8d#\	-cie	-le,	[
.	.	.	.	.	.	.	.	8e\	Śpie-	singt,	.	8e\	Śpie-	singt,	.
=59	=59	=59	=59	=59	=59	=59	=59	=59	=59	=59	=59	=59	=59	=59	=59
!	!	!	!LO:HP:a	!	!	!	!LO:HP:a	!	!	!	!LO:HP:a	!	!	!	!LO:HP:a
!	!	!	!LO:DY:a	!	!	!	!LO:DY:a	!	!	!	!LO:DY:a	!	!	!	!LO:DY:a
(2F#\	-waj-	tanzt	ff >	2.c#\	-waj-	tanzt	ff >	2.e\	-waj-	tanzt	ff >	(2a\	-waj-	tanzt	ff >
4A\)	.	.	.	.	.	.	.	.	.	.	.	4f#\)	.	.	.
4A\	-cie,	und	]	4c#\	-cie,	und	]	4e\	-cie,	und	]	4c#\	-cie,	und	]
!!LO:PB:g=original
=60	=60	=60	=60	=60	=60	=60	=60	=60	=60	=60	=60	=60	=60	=60	=60
*xywh-#8:448,921,1508,216	*	*	*	*xywh-#8:448,708,1496,231	*	*	*	*xywh-#8:431,522,1513,208	*	*	*	*xywh-#8:426,307,1510,241	*	*	*
4A\	tańcz-	schwingt	.	4B\	tańcz-	schwingt	.	8e\L	tańcz-	schwingt	.	8e\L	tańcz-	schwingt	.
.	.	.	.	.	.	.	.	8d#\J	.	.	.	8d#\J	.	.	.
!	!	!	!LO:HP:a	!	!	!	!LO:HP:a	!	!	!	!LO:HP:a	!	!	!	!LO:HP:a
8A\	-cie	die	<	8B\	-cie	die	<	8f#\	-cie	die	<	8f#\	-cie	die	<
8A\	i	Po-	.	8B\	i	Po-	.	8d#\	i	Po-	.	8d#\	i	Po-	.
4G#\	pij-	-ka-	.	4B\	pij-	-ka-	.	4B\	pij-	-ka-	.	4B\	pij-	-ka-	.
4G#\	-cie,	-le,	[	4B\	-cie,	-le,	[	4e\	-cie,	-le,	[	4e\	-cie,	-le,	[
=61	=61	=61	=61	=61	=61	=61	=61	=61	=61	=61	=61	=61	=61	=61	=61
!	!	!	!LO:DY:a	!	!	!	!LO:DY:a	!	!	!	!LO:DY:a	!	!	!	!LO:DY:a
2F#\	tańcz-	heut'	ff	2cn\	tańcz-	heut'	ff	2e\	tańcz-	heut'	ff	2a\	tańcz-	heut'	ff
2A\	-cie,	noch	.	2c\	-cie,	noch	.	2e\	-cie,	noch	.	2f#\	-cie,	noch	.
=62	=62	=62	=62	=62	=62	=62	=62	=62	=62	=62	=62	=62	=62	=62	=62
4A\	pij-	schwingt	.	4B\	pij-	schwingt	.	8e\L	pij-	schwingt	.	8e\L	pij-	schwingt	.
.	.	.	.	.	.	.	.	8d#\J	.	.	.	8d#\J	.	.	.
!	!	!	!LO:HP:a	!	!	!	!LO:HP:a	!	!	!	!LO:HP:a	!	!	!	!LO:HP:a
8A\	-cie	die	<	8B\	-cie	die	<	8f#\	-cie	die	<	8f#\	-cie	die	<
8A\	we-	Po-	.	8B\	we-	Po-	.	8d#\	we-	Po-	.	8d#\	we-	Po-	.
4G#\	-so-	-ka-	.	4B\	-so-	-ka-	.	4e\	-so-	-ka-	.	4e\	-so-	-ka-	.
8A\	-ło!	-le	.	8c#\	-ło!	-le	.	8c#\	-ło!	-le	.	8e\	-ło!	-le	[
8A\	we-	mit	[	8c#\	we-	mit	[	8c#\	we-	mit	[	8e\	we-	mit	.
!!LO:LB:g=original
=63	=63	=63	=63	=63	=63	=63	=63	=63	=63	=63	=63	=63	=63	=63	=63
*xywh-#8:459,1729,1495,209	*	*	*	*xywh-#8:464,1526,1490,219	*	*	*	*xywh-#8:466,1324,1495,229	*	*	*	*xywh-#8:429,1138,1526,224	*	*	*
!	!	!	!LO:DY:a	!	!	!	!LO:DY:a	!	!	!	!LO:DY:a	!	!	!	!LO:DY:a
1G#	-so-	Freu-	ff	2B#X\	-so-	Freu-	ff	2d#\	-so-	Freu-	ff	1g#	-so-	Freu-	ff
.	.	.	.	4B#\	-ło!	-den!	.	4d#\	-ło!	-den!	.	.	.	.	.
.	.	.	.	4r	.	.	.	4r	.	.	.	.	.	.	.
=64	=64	=64	=64	=64	=64	=64	=64	=64	=64	=64	=64	=64	=64	=64	=64
2.G#\	-lo!	-den!	.	1r	.	.	.	1r	.	.	.	2.g#\	-lo!	-den,	.
4G#\	we-	mit	.	.	.	.	.	.	.	.	.	4g#\	we-	mit	.
=65	=65	=65	=65	=65	=65	=65	=65	=65	=65	=65	=65	=65	=65	=65	=65
[1G#	-so-	Freu-	.	4r	.	.	.	4r	.	.	.	[1g#	-so-	Freu-	.
!	!	!	!	!LO:TX:b:i:t=marcato	!	!	!	!LO:TX:a:i:t=marcato	!	!	!	!	!	!	!
.	.	.	.	(4B#X^\	Za-	Jen-	.	(4d#^\	Za-	Jen-	.	.	.	.	.
.	.	.	.	4c#\)	.	.	.	4e\)	.	.	.	.	.	.	.
.	.	.	.	8d#\	-nim	-seits	.	8f#\	-nim	-seits	.	.	.	.	.
.	.	.	.	8d#\	przy-	der	.	8f#\	przy-	der	.	.	.	.	.
=66	=66	=66	=66	=66	=66	=66	=66	=66	=66	=66	=66	=66	=66	=66	=66
1G#]	.	.	.	4c#\	-sta-	trau-	.	4e\	-sta-	trau-	.	1g#]	.	.	.
.	.	.	.	8B#X\	-ni	-ri-	.	8d#\	-ni	-ri-	.	.	.	.	.
.	.	.	.	8B#\	ka-	-gen	.	8d#\	ka-	-gen	.	.	.	.	.
.	.	.	.	(4c#\	-gań-	Gren-	.	(4e\	-gań-	Gren-	.	.	.	.	.
.	.	.	.	4A#X\)	.	.	.	4c#\)	.	.	.	.	.	.	.
!!LO:LB:g=original
=67	=67	=67	=67	=67	=67	=67	=67	=67	=67	=67	=67	=67	=67	=67	=67
*xywh-#8:459,2528,1496,201	*	*	*	*xywh-#8:463,2330,1493,211	*	*	*	*xywh-#8:463,2145,1515,194	*	*	*	*xywh-#8:459,1939,1520,224	*	*	*
4G#\	-lo!	-den,	.	4B#X\	-ce,	-ze	.	4d#\	-ce,	-ze	.	4g#\	-lo!	-den,	.
4r	.	.	.	4r	.	.	.	4r	.	.	.	4r	.	.	.
!	!	!	!LO:DY:a	!	!	!	!	!	!	!	!	!	!	!	!LO:DY:a
2E\	we-	mit	p	2r	.	.	.	2r	.	.	.	2e\	we-	mit	p
=68	=68	=68	=68	=68	=68	=68	=68	=68	=68	=68	=68	=68	=68	=68	=68
2E\	-so-	Freu-	.	1r	.	.	.	1r	.	.	.	2e\	-so-	Freu-	.
4E\	-ło!	-den,	.	.	.	.	.	.	.	.	.	4e\	-ło!	-den,	.
4E\	we-	mit	.	.	.	.	.	.	.	.	.	4e\	we-	mit	.
=69	=69	=69	=69	=69	=69	=69	=69	=69	=69	=69	=69	=69	=69	=69	=69
[1E	-so-	Freu-	.	4r	.	.	.	4r	.	.	.	[1e	-so-	Freu-	.
!	!	!	!	!LO:TX:b:i:t=marcato	!	!	!LO:DY:a	!LO:TX:a:i:t=marcato	!	!	!LO:DY:a	!	!	!	!
.	.	.	.	(4G#^\	Spło-	schwei-	p	(4B\	Spło-	schwei-	p	.	.	.	.
.	.	.	.	4A\)	.	.	.	4cn\)	.	.	.	.	.	.	.
.	.	.	.	8B\	-szą	-gen	.	8dn\	-szą	-gen	.	.	.	.	.
.	.	.	.	8B\	mu-	Ge-	.	8d\	mu-	Ge-	.	.	.	.	.
=70	=70	=70	=70	=70	=70	=70	=70	=70	=70	=70	=70	=70	=70	=70	=70
1E]	.	.	.	4A\	-zy-	-sän-	.	4cn\	-zy-	-sän-	.	1e]	.	.	.
.	.	.	.	8G#\	-kę	-ge	.	8B\	-kę	-ge	.	.	.	.	.
.	.	.	.	8G#\	i	und	.	8B\	i	und	.	.	.	.	.
.	.	.	.	(4A\	tań-	Tän-	.	(4c\	tań-	Tän-	.	.	.	.	.
.	.	.	.	4F#\)	.	.	.	4A/)	.	.	.	.	.	.	.
!!LO:PB:g=original
=71||	=71||	=71||	=71||	=71||	=71||	=71||	=71||	=71||	=71||	=71||	=71||	=71||	=71||	=71||	=71||
!!!OMD: Tempo I.
!!!key: A
*k[f#c#g#]	*	*	*	*k[f#c#g#]	*	*	*	*k[f#c#g#]	*	*	*	*k[f#c#g#]	*	*	*
*M6/8	*	*	*	*M6/8	*	*	*	*M6/8	*	*	*	*M6/8	*	*	*
*xywh-#9:118,963,1510,200	*	*	*	*xywh-#9:114,769,1512,208	*	*	*	*xywh-#9:94,564,1532,220	*	*	*	*xywh-#9:78,334,1546,248	*	*	*
4E\	-ło!	-den!	.	4G#\	-ce.	-ze.	.	4B\	-ce.	-ze.	.	4e\	-ło!	-den!	.
8r	.	.	.	8r	.	.	.	8r	.	.	.	8r	.	.	.
!	!	!	!LO:DY:a	!	!	!	!LO:DY:a	!	!	!	!LO:DY:a	!	!	!	!LO:DY:a
4.E\	We-	Ge-	p	4.E\	We-	Ge-	p	4.e\	We-	Ge-	p	4.e\	We-	Ge-	p
=72	=72	=72	=72	=72	=72	=72	=72	=72	=72	=72	=72	=72	=72	=72	=72
!	!	!	!LO:HP:a	!	!	!	!LO:HP:a	!	!	!	!LO:HP:a	!	!	!	!LO:HP:a
4.E\	-so-	-schwin-	>	4.E\	-so-	-schwin-	>	4.e\	-so-	-schwin-	>	4.e\	-so-	-schwin-	>
4E\	-ło,	-de,	]	4E\	-ło,	-de,	]	4e\	-ło,	-de,	]	4e\	-ło,	-de,	]
!	!	!	!LO:DY:a	!	!	!	!LO:DY:a	!	!	!	!LO:DY:a	!	!	!	!LO:DY:a
8E\	we-	ge-	p	8E\	we-	ge-	p	8G#/	we-	ge-	p	8d\	we-	ge-	p
=73	=73	=73	=73	=73	=73	=73	=73	=73	=73	=73	=73	=73	=73	=73	=73
2.AA/	-so-	-schwin-	.	4.E\	-so-	-schwin-	.	4.A/	-so-	-schwin-	.	8c#\	-so-	-schwin-	.
.	.	.	.	.	.	.	.	.	.	.	.	8d\	-ło	-de	.
.	.	.	.	.	.	.	.	.	.	.	.	8c#\	że-	zu	.
.	.	.	.	4E\	-ło,	-de,	.	4A/	-ło,	-de,	.	8e\	-gluj-	Schif-	.
.	.	.	.	.	.	.	.	.	.	.	.	8A/	-my	-fe,	.
.	.	.	.	8Fn\	że-	auf	.	8A/	że-	auf	.	8B\	we-	ge-	.
=74	=74	=74	=74	=74	=74	=74	=74	=74	=74	=74	=74	=74	=74	=74	=74
4.AA/	-ło!	-de,	.	4.E\	-gluj-	stür-	.	4.A/	-gluj-	stür-	.	4.c#\	-so-	-schwin-	.
4.AA/	że-	er-	.	4E\	-my!	-mi-	.	4A/	-my!	-mi-	.	4c#\	-ło!	-de,	.
.	.	.	.	8F#X\	we-	-schen	.	8A/	we-	-schen	.	8c#\	Po	auf	.
!!LO:LB:g=original
=75	=75	=75	=75	=75	=75	=75	=75	=75	=75	=75	=75	=75	=75	=75	=75
*xywh-#9:134,1744,1486,236	*	*	*	*xywh-#9:134,1560,1484,214	*	*	*	*xywh-#9:108,1377,1516,210	*	*	*	*xywh-#9:96,1163,1532,234	*	*	*
[2.AA/	-gluj-	-ha-	.	4.E\	-so-	Flu-	.	4.A/	-so-	Flu-	.	8c#\	ży-	stür-	.
.	.	.	.	.	.	.	.	.	.	.	.	8B\	-cia	-mi-	.
.	.	.	.	.	.	.	.	.	.	.	.	8c#\	burz-	-schen	.
.	.	.	.	4Fn\	-ło	-ten	.	4G#/	-ło	-ten	.	8d\	-li-	Flu-	.
.	.	.	.	.	.	.	.	.	.	.	.	8c#\	-wym	-ten	.
.	.	.	.	8D\	że-	im	.	8G#/	że-	im	.	8B\	po-	im	.
=76	=76	=76	=76	=76	=76	=76	=76	=76	=76	=76	=76	=76	=76	=76	=76
4.AA/]	.	.	.	4.C#/	-gluj-	Le-	.	4.A/	-gluj-	Le-	.	4.A/	-to-	Le-	.
8AA/	-my!	-ben	.	8C#/	-my!	-ben	.	8E/	-my!	-ben	.	8E/	-ku!	-ben	.
8r	.	.	.	8r	.	.	.	8r	.	.	.	8r	.	.	.
8E\	Jak	gleich	.	8E\	Jak	gleich	.	8E/	Jak	gleich	.	8E/	Jak	gleich	.
=77	=77	=77	=77	=77	=77	=77	=77	=77	=77	=77	=77	=77	=77	=77	=77
8A\	or-	Ad-	.	8A\	or-	Ad-	.	8A/	or-	Ad-	.	8A/	or-	Ad-	.
!	!	!	!LO:HP:a	!	!	!	!LO:HP:a	!	!	!	!LO:HP:a	!	!	!	!LO:HP:a
8A\	-ły	-lern	<	8A\	-ły	-lern	<	8A/	-ły	-lern	<	8A/	-ły	-lern	<
8G#X\	w_gra-	er-	.	8A\	w_gra-	er-	.	8A/	w_gra-	er-	.	8B\	w_gra-	er-	.
8Gn\	-do-	-ha-	.	8A\	-do-	-ha-	.	8A/	-do-	-ha-	.	8c#\	-do-	-ha-	.
8F#\	-wym	-ben	.	8A\	-wym	-ben	.	8B\	-wym	-ben	.	8d\	-wym	-ben	.
8E\	o-	zu	[	8A\	o-	zu	[	8c#\	o-	zu	[	8e\	o-	zu	[
!!LO:LB:g=original
=78	=78	=78	=78	=78	=78	=78	=78	=78	=78	=78	=78	=78	=78	=78	=78
*xywh-#9:138,2571,1476,208	*	*	*	*xywh-#9:134,2371,1506,220	*	*	*	*xywh-#9:122,2161,1514,236	*	*	*	*xywh-#9:134,1980,1500,216	*	*	*
4.D\	-bło-	schwe-	.	4.A\	-bło-	schwe-	.	4.d\	-bło-	schwe-	.	4.f#\	-bło-	schwe-	.
4F#\	-ku,	-ben	.	4A\	-ku,	-ben	.	4A/	-ku,	-ben	.	4d\	-ku,	-ben	.
!	!	!	!LO:DY:a	!	!	!	!LO:DY:a	!	!	!	!LO:DY:a	!	!	!	!LO:DY:a
8D\	Choć	bei	f	8A\	Choć	bei	f	8d\	Choć	bei	f	8f#\	Choć	bei	f
=79	=79	=79	=79	=79	=79	=79	=79	=79	=79	=79	=79	=79	=79	=79	=79
4.A\	wi-	dro-	.	4.A\	wi-	dro-	.	4.c#\	wi-	dro-	.	8e\	wi-	wi-	.
.	.	.	.	.	.	.	.	.	.	.	.	8d#X\	-chry	-drig	.
.	.	.	.	.	.	.	.	.	.	.	.	8e\	pio-	uns	.
4F#\	-chry	-hen-	.	4A\	-chry	-hen-	.	4c#\	-chry	-hen-	.	8f#\	-ru-	dro-	.
.	.	.	.	.	.	.	.	.	.	.	.	8c#\	-my	-hen-	.
8F#\	wo-	-dem	.	8A\	wo-	-dem	.	8c#\	wo-	-dem	.	8d#\	wo-	-dem	.
=80	=80	=80	=80	=80	=80	=80	=80	=80	=80	=80	=80	=80	=80	=80	=80
4C#/	-ko-	Win-	.	4G#\	-ko-	Win-	.	4c#\	-ko-	Win-	.	4e\	-ko-	Win-	.
8r	.	.	.	8r	.	.	.	8r	.	.	.	8r	.	.	.
!	!	!	!LO:DY:a	!	!	!	!LO:DY:a	!	!	!	!LO:DY:a	!	!	!	!LO:DY:a
[4.E\	-ło!	-de.	ff	[4.G#\	-ło!	-de.	ff	[4.B\	-ło!	-de.	ff	[4.e\	-ło!	-de.	ff
=81	=81	=81	=81	=81	=81	=81	=81	=81	=81	=81	=81	=81	=81	=81	=81
!	!	!	!LO:HP:a	!	!	!	!LO:HP:a	!	!	!	!LO:HP:a	!	!	!	!LO:HP:a
4.E\_	.	.	>	4.G#\_	.	.	>	4.B\_	.	.	>	4.e\_	.	.	>
4E\]	.	.	]	4G#\]	.	.	]	4B\]	.	.	]	4e\]	.	.	]
!	!	!	!LO:DY:a	!	!	!	!LO:DY:a	!	!	!	!LO:DY:a	!	!	!	!LO:DY:a
8E\	we-	Ge-	p	8E\	we-	Ge-	p	8G#/	we-	Ge-	p	8d\	we-	Ge-	p
!!LO:PB:g=original
=82	=82	=82	=82	=82	=82	=82	=82	=82	=82	=82	=82	=82	=82	=82	=82
*xywh-#10:331,958,1578,196	*	*	*	*xywh-#10:372,756,1533,202	*	*	*	*xywh-#10:372,556,1520,199	*	*	*	*xywh-#10:385,299,1505,269	*	*	*
2.AA/	-so-	-schwin-	.	(4.E\	-so-	-schwin-	.	[2.A/	-so-	-schwin-	.	8c#\	-so-	-schwin-	.
.	.	.	.	.	.	.	.	.	.	.	.	8d\	-ło	-de	.
.	.	.	.	.	.	.	.	.	.	.	.	8c#\	że-	zu	.
.	.	.	.	4.Gn\)	.	.	.	.	.	.	.	8e\	-gluj-	Schif-	.
.	.	.	.	.	.	.	.	.	.	.	.	8A/	-my	-fe,	.
.	.	.	.	.	.	.	.	.	.	.	.	8B\	we-	ge-	.
=83	=83	=83	=83	=83	=83	=83	=83	=83	=83	=83	=83	=83	=83	=83	=83
4.AA/	-ło	-de,	.	4.F#\	-ło	-de	.	4.A/]	.	.	.	4.c#\	-so-	-schwin-	.
4.AA/	we-	ge-	.	4.Fn\	Po	auf	.	4A/	-ło	-de	.	4c#\	-ło!	-de,	.
.	.	.	.	.	.	.	.	8A/	Po	auf	.	8c#\	Po	auf	.
=84	=84	=84	=84	=84	=84	=84	=84	=84	=84	=84	=84	=84	=84	=84	=84
[2.AA/	-so-	-schwin-	.	4.E\	ży-	Flu-	.	4.A/	ży-	Flu-	.	8c#\	ży-	stür-	.
.	.	.	.	.	.	.	.	.	.	.	.	8B\	-cia	-mi-	.
.	.	.	.	.	.	.	.	.	.	.	.	8c#\	burz-	-schen	.
.	.	.	.	4Fn\	-cia	-ten	.	4G#X/	-cia	-ten	.	8d\	-li-	Flu-	.
.	.	.	.	.	.	.	.	.	.	.	.	8c#\	-wym	-ten	.
.	.	.	.	8D\	po-	im	.	8G#/	po-	im	.	8B\	po-	im	.
!!LO:LB:g=original
=85	=85	=85	=85	=85	=85	=85	=85	=85	=85	=85	=85	=85	=85	=85	=85
*xywh-#10:385,1743,1503,196	*	*	*	*xywh-#10:412,1552,1477,191	*	*	*	*xywh-#10:412,1367,1497,184	*	*	*	*xywh-#10:331,1154,1578,212	*	*	*
4.AA/]	.	.	.	4.C#/	-to-	Le-	.	4.A/	-to-	Le-	.	4.A/	-to-	Le-	.
4AA/	-ło!	-de	.	4C#/	-ku,	-ben	.	4E/	-ku,	-ben	.	4A/	-ku,	-ben	.
8C#/	Choć	gleich	.	8E\	Choć	gleich	.	8E/	Choć	gleich	.	8G#/	Choć	gleich	.
=86	=86	=86	=86	=86	=86	=86	=86	=86	=86	=86	=86	=86	=86	=86	=86
!	!	!	!LO:HP:a:t=cresc. ed animando	!	!	!	!LO:HP:a:t=cresc. ed animando	!	!	!	!LO:HP:a:t=cresc. ed animando	!	!	!	!LO:HP:a:t=cresc. ed animando
4.D\	wi-	Ad-	<	4.D\	wi-	Ad-	<	4.F#/	wi-	Ad-	<	4.F#/	wi-	Ad-	<
4BB/	-chry	-lern	.	4F#\	-chry	-lern	.	4G#/	-chry	-lern	.	4d\	-chry	-lern	.
8BB/	wo-	er-	.	8F#\	wo-	er-	.	8G#/	wo-	er-	.	8d\	wo-	er-	.
=87	=87	=87	=87	=87	=87	=87	=87	=87	=87	=87	=87	=87	=87	=87	=87
(4C#/	-ko-	-ha-	.	(4E#X\	-ko-	-ha-	.	(<4G#/	-ko-	-ha-	.	(4c#\	-ko-	-ha-	.
8E#X\)	.	.	.	8G#\)	.	.	.	8B\)	.	.	.	8B\)	.	.	.
4F#\	-ło,	-ben	.	4F#\	-ło,	-ben	.	4A/	-ło,	-ben	.	4A/	-ło,	-ben	.
8En\	pio-	zu	.	8G#\	pio-	zu	.	8B\	pio-	zu	.	8B\	pio-	zu	.
=88	=88	=88	=88	=88	=88	=88	=88	=88	=88	=88	=88	=88	=88	=88	=88
4.A\	-ru-	schwe-	.	4.A\	-ru-	schwe-	.	4.c#\	-ru-	schwe-	.	4.c#\	-ru-	schwe-	.
4D#X\	-ny	-ben,	.	4A\	-ny	-ben,	.	4B\	-ny	-ben,	.	4f#\	-ny	-ben,	.
8D#\	wo-	gleich	.	8A\	wo-	gleich	.	8B\	wo-	gleich	.	8f#\	wo-	gleich	.
!!LO:LB:g=original
=89	=89	=89	=89	=89	=89	=89	=89	=89	=89	=89	=89	=89	=89	=89	=89
*xywh-#10:355,2565,1538,199	*	*	*	*xywh-#10:387,2363,1507,202	*	*	*	*xywh-#10:387,2173,1497,189	*	*	*	*xywh-#10:385,1939,1498,234	*	*	*
!	!	!	!LO:HP:a	!	!	!	!LO:HP:a	!	!	!	!LO:HP:a	!	!	!	!LO:HP:a
(4E\	-ko-	Ad-	<	(4G#\	-ko-	Ad-	<	(4B\	-ko-	Ad-	<	(4e\	-ko-	Ad-	<
8G#\)	.	.	.	8B\)	.	.	.	8d\)	.	.	.	8d\)	.	.	.
4A\	-ło,	-lern	.	4A\	-ło,	-lern	.	4c#\	-ło,	-lern	.	4c#\	-ło,	-lern	.
8A\	we-	er-	[	8c#\	we-	er-	[	8e\	we-	er-	[	8e\	we-	er-	[
=90	=90	=90	=90	=90	=90	=90	=90	=90	=90	=90	=90	=90	=90	=90	=90
!	!	!	!LO:DY:a	!	!	!	!LO:DY:a	!	!	!	!LO:DY:a	!	!	!	!LO:DY:a
4.A\	-so-	-ha-	ff	4.d\	-so-	-ha-	ff	4.f#\	-so-	-ha-	ff	4.a\	-so-	-ha-	ff
4A\	-ło!	-ben,	.	4c#\	-ło!	-ben,	.	4e\	-ło!	-ben,	.	4e\	-ło!	-ben,	.
8A\	we-	er-	.	8c#\	we-	er-	.	8e\	we-	er-	.	8e\	we-	er-	.
=91	=91	=91	=91	=91	=91	=91	=91	=91	=91	=91	=91	=91	=91	=91	=91
4.A\	-so-	-ha-	.	4.d\	-so-	-ha-	.	4.f#\	-so-	-ha-	.	4.a\	-so-	-ha-	.
4A\	-ło!	-ben,	.	4c#\	-ło!	-ben,	.	4e\	-ło!	-ben,	.	4e\	-ło!	-ben,	.
8A\	we-	er-	.	8c#\	we-	er-	.	8e\	we-	er-	.	8e\	we-	er-	.
=92	=92	=92	=92	=92	=92	=92	=92	=92	=92	=92	=92	=92	=92	=92	=92
!	!	!	!	!	!	!	!	!	!	!	!	!LO:TX:a:i:t=poco ritard.	!	!	!
2.A\	-so-	-ha-	.	2.d\	-so-	-ha-	.	2.fn\	-so-	-ha-	.	2.a\	-so-	-ha-	.
=93	=93	=93	=93	=93	=93	=93	=93	=93	=93	=93	=93	=93	=93	=93	=93
[4.A\	-ło!	-ben.	.	[4.c#\	-ło!	-ben.	.	[4.e\	-ło!	-ben.	.	[4.e\	-ło!	-ben.	.
4A;\]	.	.	.	4c#;\]	.	.	.	4e;\]	.	.	.	4e;\]	.	.	.
!	!	!	!	!	!	!	!	!	!	!	!LO:DY:a	!LO:TX:a:i:t=a tempo	!	!	!LO:DY:a
8r	.	.	.	8r	.	.	.	8A'/	We-	Ge-	p	8c#'\	We-	Ge-	p
!!LO:PB:g=original
=94	=94	=94	=94	=94	=94	=94	=94	=94	=94	=94	=94	=94	=94	=94	=94
*xywh-#11:136,863,1561,223	*	*	*	*xywh-#11:160,678,1565,215	*	*	*	*xywh-#11:154,471,1503,255	*	*	*	*xywh-#11:172,237,1493,271	*	*	*
4r	.	.	.	4r	.	.	.	8A'/	-so-	-schwin-	.	8c#'\	-so-	-schwin-	.
.	.	.	.	.	.	.	.	8G#'/	-ło!	-de	.	8B'\	-ło	-de	.
8r	.	.	.	8r	.	.	.	8A'/	że-	zu	.	8c#'\	że-	zu	.
4r	.	.	.	4r	.	.	.	8B'/	-gluj-	Schif-	.	8d'\	-gluj-	Schif-	.
.	.	.	.	.	.	.	.	8A'/	-my	-fe,	.	8c#'\	-my	-fe,	.
!	!	!	!LO:DY:a	!	!	!	!LO:DY:a	!	!	!	!	!	!	!	!
8E'\	We-	Ge-	p	8E'\	We-	Ge-	p	8G#'/	we-	ge-	.	8B'\	we-	ge-	.
=95	=95	=95	=95	=95	=95	=95	=95	=95	=95	=95	=95	=95	=95	=95	=95
!LO:TX:a:i:t=marcato	!	!	!	!	!	!	!	!	!	!	!	!	!	!	!
8AA'/	-so-	-schwin-	.	[2.E\	-so-	-schwin-	.	4.c#\	-so-	-schwin-	.	4.e\	-so-	-schwin-	.
8BB'/	-ło	-de	.	.	.	.	.	.	.	.	.	.	.	.	.
8C#'/	że-	zu	.	.	.	.	.	.	.	.	.	.	.	.	.
8D'/	-gluj-	Schif-	.	.	.	.	.	4B\	-ło!	-de,	.	4E/	-ło!	-de,	.
8C#'/	-my	-fe,	.	.	.	.	.	.	.	.	.	.	.	.	.
8BB'/	we-	ge-	.	.	.	.	.	8d\	we-	ge-	.	8r	.	.	.
=96	=96	=96	=96	=96	=96	=96	=96	=96	=96	=96	=96	=96	=96	=96	=96
!	!	!	!	!	!	!	!	!	!	!	!LO:HP:a:t=marcato e cresc. sempre	!	!	!	!
4.AA/	-so-	-schwin-	.	4.E\]	.	.	.	8c#'\	-so-	-schwin-	<	4r	.	.	.
.	.	.	.	.	.	.	.	8B'\	-ło	-de	.	.	.	.	.
!	!	!	!	!	!	!	!LO:HP:a	!	!	!	!	!	!	!	!
.	.	.	.	.	.	.	<	8c#'\	że-	zu	.	8r	.	.	.
4AA/	-ło!	-de,	.	4F#\	-ło	-de	.	8d'\	-gluj-	Schif-	.	4r	.	.	.
.	.	.	.	.	.	.	.	8c#'\	-my	-fe,	.	.	.	.	.
!	!	!	!	!	!	!	!	!	!	!	!	!	!	!	!LO:HP:a
8AA/	we-	ge-	.	8G#\	że-	zu	[	8B'\	we-	ge-	.	8e\	we-	ge-	<
!!LO:LB:g=original
=97	=97	=97	=97	=97	=97	=97	=97	=97	=97	=97	=97	=97	=97	=97	=97
*xywh-#11:156,1653,1519,233	*	*	*	*xywh-#11:170,1454,1505,223	*	*	*	*xywh-#11:182,1262,1503,239	*	*	*	*xywh-#11:146,1087,1569,211	*	*	*
!	!	!	!LO:HP:a	!	!	!	!	!	!	!	!	!	!	!	!
8AA'/	-so-	-schwin-	<	4.A\	-gluj-	Schif-	.	4.c#\	-so-	-schwin-	.	4.e\	-so-	-schwin-	.
8BB'/	-ło	-de	.	.	.	.	.	.	.	.	.	.	.	.	.
8C#'/	że-	zu	.	.	.	.	.	.	.	.	.	.	.	.	.
8D'/	-gluj-	Schif-	.	4E\	-my	-fe,	.	4B\	-ło!	-de,	.	4E/	-ło!	-de,	.
8C#'/	-my	-fe,	.	.	.	.	.	.	.	.	.	.	.	.	.
!	!	!	!	!	!	!	!LO:HP:a	!	!	!	!	!	!	!	!
8BB'/	we-	ge-	.	8E\	we-	ge-	<	8d\	we-	ge-	.	8r	.	.	.
=98	=98	=98	=98	=98	=98	=98	=98	=98	=98	=98	=98	=98	=98	=98	=98
!	!	!	!	!	!	!	!LO:HP:a	!	!	!	!	!	!	!	!
4.AA/	-so-	-schwin-	.	4.E\	-so-	-schwin-	<	8c#'\	-so-	-schwin-	.	4r	.	.	.
.	.	.	.	.	.	.	.	8B'\	-ło	-de	.	.	.	.	.
.	.	.	.	.	.	.	.	8c#'\	że-	zu	.	8r	.	.	.
4AA/	-ło!	-de,	.	4F#\	-ło!	-de,	[	8d'\	-gluj-	Schif-	.	4r	.	.	.
.	.	.	.	.	.	.	.	8c#'\	-my	-fe	.	.	.	.	.
!	!	!	!LO:DY:a	!	!	!	!LO:DY:a	!	!	!	!LO:DY:a	!	!	!	!LO:DY:a
8E\	we-	ge-	f	8G#\	we-	ge-	f	8B'\	we-	ge-	f	8e\	we-	ge-	f
=99	=99	=99	=99	=99	=99	=99	=99	=99	=99	=99	=99	=99	=99	=99	=99
!	!	!	!	!LO:TX:a:i:t=marcato	!	!	!	!	!	!	!	!	!	!	!
[2.E\	-so-	-schwin-	.	8A\	-so-	-schwin-	.	8c#'\	-so-	-schwin-	.	[2.e\	-so-	-schwin-	.
.	.	.	.	8G#\	-ło	-de	.	8B'\	-ło	-de	.	.	.	.	.
!	!	!	!LO:HP:a	!	!	!	!LO:HP:a	!	!	!	!LO:HP:a	!	!	!	!LO:HP:a
.	.	.	<	8A\	że-	zu	<	8c#'\	że-	zu	<	.	.	.	<
.	.	.	.	8B\	-gluj-	Schif-	.	8d'\	-gluj-	Schif-	.	.	.	.	.
.	.	.	.	8A\	-my,	-fe	.	8c#'\	-my,	-fe	.	.	.	.	.
.	.	.	.	8G#\	we-	ge-	.	8B'\	we-	ge-	.	.	.	.	.
!!LO:LB:g=original
=100	=100	=100	=100	=100	=100	=100	=100	=100	=100	=100	=100	=100	=100	=100	=100
*xywh-#11:170,2465,1509,225	*	*	*	*xywh-#11:172,2285,1513,209	*	*	*	*xywh-#11:166,2076,1545,215	*	*	*	*xywh-#11:164,1857,1517,237	*	*	*
2.E\_	.	.	.	8A'\	-so-	-schwin-	.	8c#'\	-so-	-schwin-	.	2.e\]	.	.	.
.	.	.	.	8G#'\	-ło	-de,	.	8B'\	-ło	-de,	.	.	.	.	.
.	.	.	.	8A'\	że-	zu	.	8c#'\	że-	zu	.	.	.	.	.
.	.	.	.	8B'\	-gluj-	Schif-	.	8d'\	-gluj-	Schif-	.	.	.	.	.
.	.	.	.	8A'\	-my	-fe	.	8c#'\	-my	-fe	.	.	.	.	.
.	.	.	.	8G#'\	we-	ge-	.	8B'\	we-	ge-	.	.	.	.	.
=101	=101	=101	=101	=101	=101	=101	=101	=101	=101	=101	=101	=101	=101	=101	=101
4.E\]	.	.	.	4.A\	-so-	-schwin-	.	4.c#\	-so-	-schwin-	.	4E/	-ło!	-de!	.
.	.	.	.	.	.	.	.	.	.	.	.	8r	.	.	.
4E\	-ło!	-de!	.	4G#\	-ło!	-de!	.	4B\	-ło!	-de!	.	4r	.	.	.
!	!	!	!LO:DY:a	!	!	!	!LO:DY:a	!	!	!	!LO:DY:a	!	!	!	!LO:DY:a
8E\	Hej!	Hoi	ff	8B\	Hej!	Hoi	ff	8d\	Hej!	Hoi	ff	8e\	Hej!	Hoi	ff
=102	=102	=102	=102	=102	=102	=102	=102	=102	=102	=102	=102	=102	=102	=102	=102
*	*	*	*	*	*	*	*	*	*	*	*	*^	*	*	*
*	*	*	*	*	*	*	*	*	*	*	*	*	*xywh-#11:164,1857,1517,237	*	*	*
2.AA;/	hej!	ho!	.	2.A;\	hej!	ho!	.	2.c#;\	hej!	ho!	.	2.a;/	2.e\	hej!	ho!	.
*	*	*	*	*	*	*	*	*	*	*	*	*v	*v	*	*	*
==	==	==	==	==	==	==	==	==	==	==	==	==	==	==	==
*-	*-	*-	*-	*-	*-	*-	*-	*-	*-	*-	*-	*-	*-	*-	*-
!!!system-decoration: [(*)]
!!!RDF**kern: > = above
!!!RDF**kern: < = below
!!!ENC: Anastazja Marusiak
!!!END: 2022-03-24
!!!ENC: Andrzej Kubiczek
!!!END: 2022-03-27
!!!ENC-iiif: Olaf Gawdzik
!!!END-iiif: 2022-09-17
